X: 35695
T: Saint Anne's
R: reel
M: 4/4
K: Dmajor
de|:"D"f2fg fedB|A2F2 F2GA|"G"B2G2 G2GB|"A7"A2F2 F2de|
"D"f2fg fedB|A2F2 F2FA|"G"BGBd "A7"cAce|"D"dfec d2:|
|:ag|"D"fdfa fdfg|"Em"aggf g2gf|"A7"edcB Aceg|"D" baa^g "A7"a2a=g|
"D"fdfa fdfg|"Em"a2gf g2gf|"A7"edcB Acec|"D"dfec d4:|

